src/static/logos/mailgun-icon.svg

<?xml version="1.0" encoding="UTF-8"?>
<svg width="256px" height="257px" viewBox="0 0 256 257" version="1.1" xmlns="http://www.w3.org/2000/svg" xmlns:xlink="http://www.w3.org/1999/xlink" preserveAspectRatio="xMidYMid">
    <g>
        <path d="M128.418361,80.5257478 C101.907658,80.5257478 79.5335217,102.001133 79.5335217,129.254056 C79.4154116,142.21064 84.5278277,154.670801 93.7212414,163.832867 C102.914655,172.994933 115.417448,178.089917 128.418361,177.97221 C154.929065,177.97221 177.293013,156.496825 177.293013,129.254056 C177.293013,102.001133 154.929065,80.5257478 128.418361,80.5257478 L128.418361,80.5257478 Z M52.1975431,128.42144 C52.1975431,87.1359017 86.1662917,53.2829784 127.593086,53.2829784 C169.009692,53.2829784 202.97844,87.1359017 202.97844,128.42144 C202.97844,130.898979 202.97844,134.209133 202.153165,136.686671 C201.317701,144.109133 207.125195,149.886671 214.583241,149.886671 C227.013317,149.886671 228.663868,134.209133 228.663868,128.42144 C228.663868,73.0931324 183.090319,27.6749781 127.593086,27.6749781 C72.0754761,27.6749781 26.5223042,73.0931324 26.5223042,128.42144 C26.5223042,183.759902 72.0754761,229.167903 127.593086,229.167903 C157.41508,229.167903 183.925783,216.78021 202.153165,196.137441 L222.856373,213.48021 C200.492425,239.910672 165.698401,256.431598 128.408173,256.431598 C94.3113459,256.536669 61.5811943,243.081229 37.4757622,219.04846 C13.3703301,195.015691 -0.118162421,162.391807 0.000624245575,128.411287 C0.000624245575,58.2279015 57.1593849,0.432208696 128.418361,0.432208696 C198.831685,0.432208696 255.999846,58.2380553 255.999846,128.431594 C255.999846,156.506979 242.744495,179.637441 215.408516,179.637441 C203.803716,179.637441 196.355859,173.849749 192.209104,168.07221 C178.953752,189.547595 154.918876,203.58021 127.582897,203.58021 C107.565997,203.647948 88.3493282,195.753351 74.1951603,181.647446 C60.0409925,167.54154 52.1193848,148.390396 52.1873545,128.441748 L52.1975431,128.42144 Z M128.408173,106.123594 C140.838249,106.123594 150.78231,116.033748 150.78231,128.42144 C150.78231,140.809133 140.838249,150.719476 128.418361,150.719476 C122.476894,150.743704 116.771698,148.402316 112.570411,144.215354 C108.369123,140.028391 106.019723,134.342649 106.044035,128.42144 C106.044035,116.033748 115.988285,106.123594 128.418361,106.123594 L128.408173,106.123594 Z" fill="#C02428" fill-rule="nonzero"></path>
    </g>
</svg>

<svg width="256" height="257" xmlns="http://www.w3.org/2000/svg" preserveAspectRatio="xMidYMid"><path d="M128.418 80.526c-26.51 0-48.884 21.475-48.884 48.728a48.197 48.197 0 0014.187 34.579 48.532 48.532 0 0034.697 14.14c26.511 0 48.875-21.476 48.875-48.719 0-27.253-22.364-48.728-48.875-48.728zm-76.22 47.895c0-41.285 33.968-75.138 75.395-75.138 41.417 0 75.385 33.853 75.385 75.138 0 2.478 0 5.788-.825 8.266-.835 7.422 4.972 13.2 12.43 13.2 12.43 0 14.08-15.678 14.08-21.466 0-55.328-45.573-100.746-101.07-100.746-55.518 0-101.07 45.418-101.07 100.746 0 55.339 45.552 100.747 101.07 100.747 29.822 0 56.333-12.388 74.56-33.03l20.703 17.342c-22.364 26.43-57.158 42.952-94.448 42.952-34.097.105-66.827-13.35-90.932-37.384C13.37 195.016-.118 162.392 0 128.411 0 58.228 57.159.432 128.418.432 198.832.432 256 58.238 256 128.432c0 28.075-13.256 51.205-40.591 51.205-11.605 0-19.053-5.787-23.2-11.565-13.255 21.476-37.29 35.508-64.626 35.508-20.017.068-39.234-7.827-53.388-21.933a74.755 74.755 0 01-22.008-53.205l.01-.02zm76.21-22.297c12.43 0 22.374 9.91 22.374 22.297 0 12.388-9.944 22.298-22.364 22.298a22.322 22.322 0 01-15.848-6.504 22.169 22.169 0 01-6.526-15.794c0-12.387 9.944-22.297 22.374-22.297h-.01z" fill="#C02428"/></svg>
